frontend/public/linkedIn.svg

<svg width="52" height="52" viewBox="0 0 52 52" fill="none" xmlns="http://www.w3.org/2000/svg">
<circle cx="26" cy="26" r="25" stroke="#00FFEE" stroke-width="1.5"/>
<path d="M20.3548 22.7703H16.0527V36.4892H20.3548V22.7703Z" stroke="#00FFEE" stroke-width="1.5"/>
<path d="M31.9921 22.4729C31.8335 22.4531 31.665 22.4432 31.4965 22.4333C29.0877 22.3341 27.7297 23.7615 27.2539 24.3761C27.1251 24.5446 27.0656 24.6437 27.0656 24.6437V22.8099H22.9519V36.5288H27.0656H27.2539C27.2539 35.1312 27.2539 33.7434 27.2539 32.3457C27.2539 31.5924 27.2539 30.839 27.2539 30.0857C27.2539 29.1539 27.1845 28.1627 27.6504 27.3102C28.0469 26.5965 28.7606 26.2397 29.5635 26.2397C31.9425 26.2397 31.9921 28.3907 31.9921 28.5889C31.9921 28.5988 31.9921 28.6087 31.9921 28.6087V36.5883H36.2941V27.6373C36.2941 24.5744 34.7379 22.7703 31.9921 22.4729Z" stroke="#00FFEE" stroke-width="1.5"/>
<path d="M18.2038 20.9959C19.5833 20.9959 20.7017 19.8775 20.7017 18.4979C20.7017 17.1184 19.5833 16 18.2038 16C16.8242 16 15.7058 17.1184 15.7058 18.4979C15.7058 19.8775 16.8242 20.9959 18.2038 20.9959Z" stroke="#00FFEE" stroke-width="1.5"/>
</svg>

<svg width="52" height="52" fill="none" xmlns="http://www.w3.org/2000/svg"><circle cx="26" cy="26" r="25" stroke="#0FE" stroke-width="1.5"/><path d="M20.355 22.77h-4.302v13.72h4.302V22.77ZM31.992 22.473c-.159-.02-.327-.03-.495-.04a5.02 5.02 0 0 0-4.243 1.943c-.129.169-.188.268-.188.268V22.81h-4.114v13.719h4.302v-6.443c0-.932-.07-1.923.396-2.776.397-.713 1.11-1.07 1.914-1.07 2.378 0 2.428 2.15 2.428 2.349v8h4.302v-8.952c0-3.063-1.556-4.867-4.302-5.164ZM18.204 20.996a2.498 2.498 0 1 0 0-4.996 2.498 2.498 0 0 0 0 4.996Z" stroke="#0FE" stroke-width="1.5"/></svg>
